icons/home-fill-24.svg

<svg width="24" height="24" viewBox="0 0 24 24" fill="none" xmlns="http://www.w3.org/2000/svg">
<path d="M12.9705 2.58982C12.4107 2.11484 11.5893 2.11484 11.0295 2.58982L3.52953 8.95345C3.19364 9.23846 3 9.6567 3 10.0972V19.5C3 20.3284 3.67157 21 4.5 21H9.25C9.66421 21 10 20.6642 10 20.25V14H14V20.25C14 20.6642 14.3358 21 14.75 21H19.5C20.3284 21 21 20.3284 21 19.5V10.0972C21 9.6567 20.8064 9.23846 20.4705 8.95345L12.9705 2.58982Z" fill="#24292E"/>
</svg>

<svg xmlns="http://www.w3.org/2000/svg" width="24" height="24" viewBox="0 0 24 24"><path d="M12.97 2.59a1.5 1.5 0 00-1.94 0l-7.5 6.363A1.5 1.5 0 003 10.097V19.5A1.5 1.5 0 004.5 21h4.75a.75.75 0 00.75-.75V14h4v6.25c0 .414.336.75.75.75h4.75a1.5 1.5 0 001.5-1.5v-9.403a1.5 1.5 0 00-.53-1.144l-7.5-6.363z"/></svg>
